X: 0
T: Here Is Joy For Every Age
L: 1/4
M: 4/4
Q: 1/4=140
K: C
[V: P1]  G G A B | c B A2 | B G A F | G2 G2 | G G A B | c B A2 | B G A F | G2 G2 | B B c d | d2 d2 | d e d c | d2 B2 | B B c B | A2 B2 | B G (A F) | G4|]

